X: 8
T: Young Widow, The
M: 6/8
L: 1/8
G: Old Joe
K: G
G|"G" B2 B BAB|"C" cdc "G" BAG|"G" BAG BAG|"G" Bcd "D" d3|
"D" B2 B BAB|"C" cdc "G" BAG|"G" Bcd "C" efg|"G" Bc"D"A "G"G3:|
|:"D" AFD AFD|"G" dcB "D" AFD|"D" AFD AFD|"G" dcB "D" A3:|
"D" f2 f fef|"G" gag "D" fed|"D" fed fed|"D" fga "A" a3|
"D" f2 f fef|"G" gag "D" fed|"D" def "Em" efg|"A" ABA "D" d3|]
%%newpage
%%textfont * 14
%%begintext justify
%%32 Bar Jigs
%%endtext
